X:1
T:Title
%%score { ( 1 3 ) | ( 2 4 ) }
L:1/8
M:6/8
K:Bb
V:1 treble nm="Grand Piano"
V:3 treble 
V:2 bass 
V:4 bass 
V:1
 z3 z2[Q:1/4=93] G | G2 G/G/ G[DF]G | B3 G2 G | [EG]2 [EG]/[EG]/ [CE]2 [DF] |[M:5/8] G-G- G3 | %5
[M:1/8] G |[M:3/4] cc c B2 B | _A4 z2 | FF F F2 E |[M:5/8] D-D- D3 |[M:1/8] [DB] | %11
[M:3/4] [DB]2 [DB][DB] [Dc][DB] | [EB]3 [EG]2 [GB] | [Ge]2 [Ge][Ge] [Fd][Ec] | [DB]4- [DB][D_A] | %15
 [EG]>[F_A] [GB]B z [EBd] | d3 c2 c | c2 F G2 F | F4 z2 | GG z G .G2 | B>B BG .G2 | c>c cc BG | %22
 F4 z2 | GG z G .G2 | %24
 _AB cB G2[Q:1/4=92][Q:1/4=90][Q:1/4=89][Q:1/4=88][Q:1/4=86][Q:1/4=85][Q:1/4=83][Q:1/4=82][Q:1/4=81][Q:1/4=79][Q:1/4=78][Q:1/4=77][Q:1/4=75][Q:1/4=74][Q:1/4=72][Q:1/4=71] | %25
 EE [EF] [EG]2 [DF] |[M:5/8] [G,E]-[G,E]- [G,E]3 |] %27
V:2
 z3 z2 [E,B,E] | [E,B,E]2 [E,B,E]/[E,B,E]/ [E,B,E][B,,B,][E,B,E] | [G,B,E]3 [E,B,E]2 [E,B,E] | %3
 [C,A,]2 [C,A,]/[C,A,]/ [C,G,]2 [B,,B,] |[M:5/8] [E,B,E]-[E,B,E]- [E,B,E]3 |[M:1/8] [E,B,E] | %6
[M:3/4] [E,_A,E][E,A,E] [E,A,E] [E,G,E]2 [E,G,E] | C2 z2 z2 | %8
 [F,B,D][F,B,D] [F,B,D] [F,A,D]2 [F,C] |[M:5/8] [B,,F,B,]-[B,,F,B,]- [B,,F,B,]3 |[M:1/8] [B,,_A,] | %11
[M:3/4] [B,,_A,]2 [B,,A,][B,,A,] [B,,A,][B,,A,] | [E,G,]3 [E,B,]2 [E,B,] | %13
 [C,A,]2 [C,A,][F,A,] [F,A,][F,A,] | [B,,B,]4- [B,,B,][B,,B,] | %15
 [E,B,]>[E,E] .[E,E]2[K:treble] eE, | [_A,E_A]3 [A,EA]2 [A,E] | [F,A,E]2 [F,A,E] [F,B,E]2 [F,A,E] | %18
 [B,,B,]6 | [E,B,E][E,B,E] z [E,B,E] .[E,B,E]2 | [G,B,E]>[G,B,E] [G,B,E][E,B,E] .[E,B,E]2 | %21
 [_A,E]>[A,E] [A,E][A,E] [G,B,E][E,B,E] | [B,,B,]6 | [E,B,E][E,B,E] z [E,_DE] .[E,DE]2 | %24
 [E,CE][E,G,E] [E,_A,E][E,G,E] [E,B,E]2 | [C,A,][C,A,] [C,A,] [B,,B,]2 [B,,_A,] | %26
[M:5/8] [E,,E,]-[E,,E,]- [E,,E,]3 |] %27
V:3
 x6 | x6 | x6 | x6 |[M:5/8] x5 |[M:1/8] x |[M:3/4] x6 | z2 =B, G2 G | x6 |[M:5/8] x5 |[M:1/8] x | %11
[M:3/4] x6 | x6 | x6 | x6 | z2 z .G3 | x6 | x6 | D3- [D^F]3 | x6 | x6 | x6 | D3- [D^F]3 | x6 | x6 | %25
 x6 |[M:5/8] x5 |] %27
V:4
 x6 | x6 | x6 | x6 |[M:5/8] x5 |[M:1/8] x |[M:3/4] x6 | [E,E]3 [E,B,E]2 [E,B,E] | x6 |[M:5/8] x5 | %10
[M:1/8] x |[M:3/4] x6 | x6 | x6 | x6 | z2 z .[E,E]3[K:treble] | x6 | x6 | x6 | x6 | x6 | x6 | x6 | %23
 x6 | x6 | x6 |[M:5/8] x5 |] %27

